X: 92
T:Rochester Schottische
M:4/4
L:1/8
K:C
g/a/g/^f/|a>ge>d c>B (3cde|d2A2 A3c|B2F2 F>EF>B|A2G2 G2g/a/g/^f/|
a>ge>d c>B (3cde|d2A2 A3c|B>G^F>G e>dB>G|c2e2 c2:|
|:E>F|(3G^FG (3cBc (3e^de (3g^fg|f2A2 A3c|B2F2 F>EF>B|A2G2 G2E>F|
(3G^FG (3cBc (3e^de (3g^fg|f2A2 A2A>c|B>G^F>G e>dB>G|c2e2 c2:|
